icons/type-icons/icons/application-x-lyx.svg

<?xml version="1.0" encoding="UTF-8" standalone="no"?>

<!-- Created with Inkscape (http://www.inkscape.org/) -->
<svg width="22" version="1.1" xmlns="http://www.w3.org/2000/svg" height="22" xmlns:xlink="http://www.w3.org/1999/xlink" xmlns:inkscape="http://www.inkscape.org/namespaces/inkscape">
 <defs id="defs3871">
  <linearGradient inkscape:collect="always" id="linearGradient4300-8">
   <stop style="stop-color:#f27935" id="stop4302-5"/>
   <stop offset="1" style="stop-color:#f2784b" id="stop4304-7"/>
  </linearGradient>
  <linearGradient inkscape:collect="always" xlink:href="#linearGradient4351" id="linearGradient4357" y1="61" y2="47" x2="0" gradientUnits="userSpaceOnUse"/>
  <linearGradient inkscape:collect="always" id="linearGradient4410">
   <stop style="stop-color:#383e51" id="stop4412"/>
   <stop offset="1" style="stop-color:#655c6f;stop-opacity:0" id="stop4414"/>
  </linearGradient>
  <linearGradient inkscape:collect="always" xlink:href="#linearGradient4410" id="linearGradient4427" y1="31" x1="54" y2="17" x2="40" gradientUnits="userSpaceOnUse" gradientTransform="matrix(1 0 0 -1 -14 78)"/>
  <linearGradient inkscape:collect="always" xlink:href="#linearGradient4300-8" id="linearGradient4306" y1="61" y2="3" x2="0" gradientUnits="userSpaceOnUse"/>
  <linearGradient inkscape:collect="always" id="linearGradient4351">
   <stop style="stop-color:#f7ab89" id="stop4353"/>
   <stop offset="1" style="stop-color:#f9bda3" id="stop4355"/>
  </linearGradient>
  <linearGradient inkscape:collect="always" id="linearGradient3444" xlink:href="#linearGradient4410" y1="31" y2="17" x1="54" x2="40" gradientUnits="userSpaceOnUse" gradientTransform="matrix(1 0 0 -1 503.93261 656.69754)"/>
  <linearGradient inkscape:collect="always" id="linearGradient3447" xlink:href="#linearGradient4351" y1="61" y2="47" x2="0" gradientUnits="userSpaceOnUse" gradientTransform="matrix(1 0 0 1 517.93261 578.69754)"/>
  <linearGradient inkscape:collect="always" id="linearGradient3452" xlink:href="#linearGradient4300-8" y1="61" y2="3" x2="0" gradientUnits="userSpaceOnUse" gradientTransform="matrix(1 0 0 1 517.93261 578.69754)"/>
 </defs>
 <metadata id="metadata3874"/>
 <g inkscape:label="Capa 1" inkscape:groupmode="layer" id="layer1" transform="matrix(1 0 0 1 -326 -534.3622)">
  <path inkscape:label="Capa 1" inkscape:connector-curvature="0" style="fill:#22a7f0" id="rect4274" d="M 3,3 3,4 19,4 19,3 3,3 Z M 9,5.6660156 9,6.6914062 13.287109,12.333984 9,17.462891 9,19 l 10,0 0,-4 -0.564453,0 c 0,0.7404 0.0016,1.495983 -0.648438,1.939453 -0.71255,0.48653 -1.651312,0.578125 -2.476562,0.578125 l -3.929688,0 3.808594,-5.183594 -3.808594,-5.927734 2.238282,0 c 1.58788,0 3.848262,-0.1428494 4.476562,1.7128906 C 18.203113,8.4359406 18.273751,9.66706 18.300781,10 L 19,10 l 0,-4.3339844 -10,0 z M 3,7 3,8 8,8 8,7 3,7 Z m 0,3 0,1 7,0 0,-1 -7,0 z m 0,3 0,1 7,0 0,-1 -7,0 z m 0,3 0,1 5,0 0,-1 -5,0 z" transform="matrix(1 0 0 1 326 534.3622)"/>
 </g>
</svg>

<?xml version="1.0" encoding="UTF-8"?><svg width="22" height="22" version="1.1" xmlns="http://www.w3.org/2000/svg">
 <g id="layer1" transform="translate(-326 -534.36)">
  <path id="rect4274" transform="translate(326 534.36)" d="m3 3v1h16v-1h-16zm6 2.666v1.0254l4.2871 5.6426-4.2871 5.1289v1.5371h10v-4h-0.56445c0 0.7404 0.0016 1.496-0.64844 1.9395-0.71255 0.48653-1.6513 0.57812-2.4766 0.57812h-3.9297l3.8086-5.1836-3.8086-5.9277h2.2383c1.5879 0 3.8483-0.14285 4.4766 1.7129 0.10741 0.3168 0.17805 1.5479 0.20508 1.8809h0.69922v-4.334h-10zm-6 1.334v1h5v-1h-5zm0 3v1h7v-1h-7zm0 3v1h7v-1h-7zm0 3v1h5v-1h-5z" fill="#22a7f0"/>
 </g>
</svg>
